img/kot.svg

<?xml version="1.0" encoding="UTF-8" standalone="no"?>
<!-- Created with Inkscape (http://www.inkscape.org/) -->

<svg
   width="66.337646mm"
   height="60.049274mm"
   viewBox="0 0 66.337646 60.049274"
   version="1.1"
   id="svg1"
   xml:space="preserve"
   inkscape:version="1.3.2 (091e20e, 2023-11-25, custom)"
   sodipodi:docname="kot.svg"
   xmlns:inkscape="http://www.inkscape.org/namespaces/inkscape"
   xmlns:sodipodi="http://sodipodi.sourceforge.net/DTD/sodipodi-0.dtd"
   xmlns="http://www.w3.org/2000/svg"
   xmlns:svg="http://www.w3.org/2000/svg"><sodipodi:namedview
     id="namedview1"
     pagecolor="#ffffff"
     bordercolor="#000000"
     borderopacity="0.25"
     inkscape:showpageshadow="2"
     inkscape:pageopacity="0.0"
     inkscape:pagecheckerboard="0"
     inkscape:deskcolor="#d1d1d1"
     inkscape:document-units="mm"
     showguides="true"
     inkscape:zoom="1.0343421"
     inkscape:cx="331.12837"
     inkscape:cy="-14.018573"
     inkscape:window-width="1920"
     inkscape:window-height="1017"
     inkscape:window-x="-8"
     inkscape:window-y="-8"
     inkscape:window-maximized="1"
     inkscape:current-layer="layer1" /><defs
     id="defs1" /><g
     inkscape:label="Warstwa 1"
     inkscape:groupmode="layer"
     id="layer1"
     transform="translate(-1.5746891,-2.0543926)"><path
       style="fill:none;stroke:#808080;stroke-width:0.26458333;stroke-dasharray:1.05833328, 0.26458332;stroke-dashoffset:0;paint-order:stroke markers fill"
       d="M 6.1930672,61.958712 3.4366768,61.676948 2.450963,60.990965 1.7099085,58.05862 2.7257341,52.33 3.4638412,45.743531 C 4.5744551,45.01233 5.8226931,44.559294 6.6545975,43.264774 6.8749393,42.896439 7.0067622,42.508502 7.593534,42.221318 7.5088519,41.562208 7.5906102,40.953613 7.6443605,40.336522 7.2205141,40.068657 6.9941594,39.651504 6.8992175,39.135008 7.2104934,35.79804 6.8397619,31.654288 8.2187848,29.580425 L 6.3091126,22.963766 C 6.2428608,20.506038 5.9304717,18.159874 6.7131311,15.317367 L 8.6638046,10.276097 8.4217789,6.9739389 C 8.1763224,5.4627953 7.6154387,4.8429749 7.1679381,3.9027611 6.9560439,3.3964281 6.9284962,2.8973857 7.4332352,2.4193944 l 0.8592173,-0.226853 c 0.6486533,0.2226829 1.0875078,0.7226631 1.5589978,1.1795085 0.5151147,0.4655015 1.0258947,0.9340651 1.2648087,1.5946896 0.698327,3.8664181 0.101943,4.733863 0.140371,7.0717415 -1.5417784,3.840272 -1.167946,4.7146 -1.5925295,6.762287 0.1822738,2.923034 1.2844705,5.6152 3.3181565,8.105656 l 29.536717,4.240511 c 1.576621,-0.218358 3.489755,-0.770589 4.777228,-2.165343 l 2.475839,-4.444635 c 0.377088,-0.989209 0.396367,-3.113581 0.585549,-4.698926 0.05577,-0.283245 0.01401,-0.647277 0.441284,-0.622773 0.609319,0.139927 2.090372,1.431069 2.407248,2.429143 0.277685,0.229262 0.555225,0.453221 0.830365,0.588378 0.475039,-0.326185 1.19012,-0.558859 2.58178,-0.527959 0.868954,0.206815 1.854174,0.06477 2.56531,0.745064 0.6964,0.411384 1.364556,0.872864 1.92469,1.525939 l 2.124022,1.367836 c 0.263851,0.551676 0.547749,1.072421 0.318997,2.383826 -0.236974,0.842374 -0.396298,1.739781 -1.006272,2.317855 -0.763227,0.557703 -1.988864,0.757497 -3.284275,0.903284 -2.728929,1.632566 -4.173644,4.51974 -5.340762,7.678119 0.488096,3.7672 1.663435,7.127894 2.528392,10.672176 1.558464,1.721606 3.423011,3.27968 4.469443,5.274842 0.286106,1.040523 1.418484,2.521681 3.0163,4.245184 0.595255,0.05124 1.191102,0.124274 1.777559,-0.149884 0.552851,0.291456 1.127185,0.555665 1.455887,1.131391 0.434721,0.456641 1.222905,0.755403 -0.199297,2.041519 L 62.23773,61.969923 49.170415,49.343064 c -2.27841,-1.7498 -4.566987,-3.346194 -7.178973,-0.06034 -1.404869,2.508301 -2.745428,6.205012 -4.23547,7.139193 l 0.04953,1.831172 c 3.183711,1.819653 1.803677,2.398237 1.154856,3.175664 l -3.814945,0.103183 c -0.651947,-1.124287 -0.889366,-2.923385 -0.852456,-5.169062 0.662597,-2.685849 1.349786,-5.188988 1.839239,-9.16141 -2.456771,0.419138 -5.534506,0.234923 -9.907896,-1.208204 -2.61731,-0.59703 -4.922613,-0.570084 -7.189981,-0.467267 -1.852989,0.966202 -3.027706,2.752406 -3.993566,4.791105 -1.787984,0.720536 -2.301666,1.93203 -2.970783,3.083635 0.09815,1.404071 0.178151,2.809297 1.537064,4.132484 l 0.64341,1.204272 1.93153,-0.103144 c 0.396469,0.846394 2.212265,1.195911 0.482597,2.786623 l -4.577934,0.12382 c -0.128066,0.37649 -5.0681154,-6.124312 -5.7659308,-9.922866 -0.4230863,1.693035 -0.4228956,4.28157 -1.3430341,4.923029 -0.340957,0.797444 -0.4350192,1.61899 -0.3917539,2.453945 0.3879132,0.393073 0.9777587,0.277405 1.4861179,0.36703 0.9303493,0.974585 0.7746011,1.814538 0.1210321,2.592785 z"
       id="path1"
       sodipodi:nodetypes="ccccccccccccccccccccccccccccccccccccccccccccccccccccccccccccccccccc" /></g></svg>

<svg width="250.725" height="226.958" viewBox="0 0 66.338 60.049" xml:space="preserve" xmlns="http://www.w3.org/2000/svg"><path style="fill:none;stroke:gray;stroke-width:.26458333;stroke-dasharray:1.05833328,.26458332;stroke-dashoffset:0;paint-order:stroke markers fill" d="m6.193 61.959-2.756-.282-.986-.686-.741-2.932 1.016-5.729.738-6.586c1.11-.732 2.359-1.185 3.19-2.48.22-.368.353-.755.94-1.043-.085-.659-.003-1.267.05-1.884-.423-.268-.65-.685-.745-1.202.311-3.337-.06-7.48 1.32-9.555l-1.91-6.616c-.066-2.458-.379-4.804.404-7.647l1.95-5.04-.241-3.303c-.246-1.511-.807-2.131-1.254-3.071-.212-.507-.24-1.006.265-1.484l.86-.226c.648.222 1.087.722 1.558 1.179.516.466 1.026.934 1.265 1.595.699 3.866.102 4.734.14 7.071-1.541 3.84-1.167 4.715-1.592 6.763.182 2.923 1.285 5.615 3.318 8.105l29.537 4.24c1.577-.217 3.49-.77 4.777-2.164l2.476-4.445c.377-.99.396-3.114.586-4.699.055-.283.014-.647.44-.623.61.14 2.091 1.431 2.408 2.43.278.229.555.453.83.588.476-.326 1.19-.56 2.582-.528.87.207 1.854.065 2.566.745.696.411 1.364.873 1.924 1.526l2.124 1.368c.264.551.548 1.072.32 2.383-.238.843-.397 1.74-1.007 2.318-.763.558-1.989.758-3.284.904-2.73 1.632-4.174 4.52-5.341 7.678.488 3.767 1.663 7.128 2.528 10.672 1.559 1.722 3.423 3.28 4.47 5.275.286 1.04 1.418 2.521 3.016 4.245.595.051 1.191.124 1.778-.15.553.292 1.127.556 1.456 1.131.434.457 1.222.756-.2 2.042l-4.73.128L49.17 49.343c-2.278-1.75-4.567-3.346-7.179-.06-1.404 2.508-2.745 6.205-4.235 7.139l.05 1.831c3.183 1.82 1.803 2.398 1.154 3.176l-3.815.103c-.652-1.124-.889-2.923-.852-5.17.663-2.685 1.35-5.188 1.84-9.16-2.458.419-5.535.234-9.909-1.209-2.617-.597-4.922-.57-7.19-.467-1.853.966-3.027 2.752-3.993 4.791-1.788.72-2.302 1.932-2.971 3.084.098 1.404.178 2.809 1.537 4.132l.643 1.204 1.932-.103c.396.847 2.212 1.196.483 2.787l-4.578.124c-.128.376-5.068-6.125-5.766-9.923-.423 1.693-.423 4.281-1.343 4.923-.341.797-.435 1.619-.392 2.454.388.393.978.277 1.486.367.93.975.775 1.814.121 2.593z" transform="translate(-1.575 -2.054)"/></svg>
